!!!OTL: Der Spielmannssohn Als ich ein kleines Buebeli war,
!!!ARE: Europa, Mitteleuropa, Deutschland / France, Lothringen
!!!YOR: 3, S. 178
!!    1890 aufgezeichnet
!!!SCT: Q0062E
!!!YEM: Copyright 1995, estate of Helmut Schaffrath.
**kern
*ICvox
*Ivox
*M6/8
*k[b-]
*F:
{8c
=1
4f
8f
4g
8cc
=2
8.a
16g
8a
4f}
{8f
=3
8.g
16a
8b-
8.cc
16b-
8a
=4
8.f
16g
8a
4g}
{8g
=5
8.cc
16dd
8cc
8b-
8a
16g
16g
=6
8.f
16c
8a
4g}
{8f
=7
8g
8a
8cc
8.cc
16b-
8a
=8
4.g
4f}
==
!!!AGN: Ballade, Verfuehrung, Standesunterschied, Strafe, Gnade
!! Kleinere Melodievarianten aus anderer Quelle im gleichen System
!!    abgedruckt
!!!ONB: ESAC (Essen Associative Code) Database: BALLADE
!!!AMT: compound duple
!!!AIN: vox
!!!EED: Helmut Schaffrath
!!!EEV: 1.0
*-
